!!!OTL: Nonnenlied.
!!!OTL-incipit: KEIN SCHOENRE LUST AUF ERDEN IST
!!!ARE: Europa, Mitteleuropa, Deutschland, Mittelrhein
!!!SCT: Z1249
!!!TXL: @@DE
!!!YEM: Copyright 1995, estate of Helmut Schaffrath.
**kern	**text
*ICvox	*
*M6/8	*
*k[f#]	*
*G:	*
!LO:TX:a:t=Vom Mittelrhein.	!
{8d	Kein'
=1	=1
4g	ſchön-
8g	-re
8gL	Luſt
8aJ	.
8b/	auf
=2	=2
8b/L	Er-
8aJ	.
8a	-den
4a}	iſt,
{16gL	als
16bJ	.
=3	=3
4dd/	in
8dd/	ein
8dd/	Klo-
8cc/	-ſter
8b/	ʒu
=4	=4
4.b/	ʒie-
8a	-hen,
8r}	.
{8dd/	ich
=5	=5
8a	ha-
8a	-be
8b/	mich
8cc/L	drein
8bJ	.
8a	er-
=6	=6
(>4b/	-ge-
8cc/)	.
8ee/L	-ben,
8ddJ}	.
{8dd/	ʒu
=7	=7
8a	füh-
8a	-ren
8b	ein
8cc/L	geiſt-
8bJ	.
8a	-lich
=8	=8
(>4b/	Le-
8cc/)	.
(8eeL	-ben,
8ddJ)}	.
{8dd	o
=9	=9
8dd/	Lie-
8dd/	-be,
8dd/	was
8ee/L	hab
8ddJ	ich
8cc/	ge-
=10	=10
(>4b/	-than!
8cc/	.
4dd/)}	.
{8ee/	o
=11	=11
8dd/	Lie-
8dd/	-be,
8dd/	was
8dd/	hab
8cc/	ich
8cc/	ge-
=12	=12
4.b/	-than!
4r}	.
==	==
!!!AGN: Liebes - Lied
!!!ONB: ESAC (Essen Associative Code) Database: ZUCCAL
!!!AMT: compound duple
!!!AIN: vox
!!!EED: Helmut Schaffrath
!!!EEV: 1.0
!!!RDF**kern: >= above
!!!GTL: V. Lieder der Minne.
!!!URL-scan: https://www.digitale-sammlungen.de/de/view/bsb11160573?page=463
!!!ENC: Anna Maria Matuszewska
!!!EEV: 2025/02/06
*-	*-
